X: 42402
T: Were You At The Fair?
R: strathspey
M: 4/4
K: Gmajor
|:d>B G>A B2 B>c|d>B G>A B2 A2|d>B G>A B2 B>c|d>e d>B A2 G>B:|
d>g g>g f>d d>A|d>g g>g f>f f>e|d>g g>f e>f g>e|d>B B>B A2 G>B|
d>g g>g f>d d>A|d>g g>g f>d d>a|b2 g>f e>f g>e|d>B B>B A2 G>B||

